X:01
T: Cowpie
C: Jonathan Swayne
M: 9/8
L: 1/8
Z: Contributed 20020320215659 by Werner Schoenfeldinger schoenf@chello.at
K: C
ceg fed cdB | cBA G2G| FAF | Gcc Gdd Gee |1 fef d2G g2e :|2 fed cdB c2G
|
|: egg dgg cgB | A{f}A{G}A {f}AFA BGd | egg dgg cgB |1 ABc dGB c2G :|2 A
Bc dGB c3||
